X: 37549
T: Slow Grace
R: strathspey
M: 4/4
K: Gmajor
BGA BcA|GAF G2[1d:|2 E||A2A dcB|AFD G2:|
D|G2G G2A|BAB GAB|cBc AcA|GFEF2G|
A2A ABc|d2d edc|BAG B2A|G4zd||

